X: 5663
T: Bwlch Llanberis
R: waltz
M: 3/4
K: Gmajor
|:D GA|B2 dB AB|G3 D EF|GD dB GB|A4 GA|
Bc BA GF|E/F/E D2 GA|B2 cB AB|G3:|
|:G Bc|d2 Bd cB|B/c/B A2 GF|G2 BG EG|G2 F2 GA|
B>c B/c/B/A/ GF|E2 D3 G|B2 cB AB|G3:|

